tools/download-figma-icons/icons/outlined-large/bus.svg

<svg width="64" height="64" viewBox="0 0 64 64" fill="none" xmlns="http://www.w3.org/2000/svg">
<path fill-rule="evenodd" clip-rule="evenodd" d="M60.14 17.89L63.96 33.14C63.99 33.25 64 33.38 64 33.5V40.5C64 42.43 62.43 44 60.5 44H57.29C56.64 46.3 54.51 48 52 48C49.49 48 47.36 46.3 46.71 44H15.29C14.64 46.3 12.51 48 10 48C7.49 48 5.36 46.3 4.71 44H1.5C0.67 44 0 43.33 0 42.5V17.5C0 16.67 0.67 16 1.5 16H57.72C58.87 16 59.87 16.78 60.14 17.89ZM55.494 32.021L60.599 32.075L57.33 19H55V31.521C55 31.793 55.222 32.018 55.494 32.021ZM12 44C12.31 43.59 12.5 43.06 12.5 42.5C12.5 41.94 12.31 41.41 12 41C11.54 40.39 10.82 40 10 40C9.18 40 8.46 40.39 8 41C7.69 41.41 7.5 41.94 7.5 42.5C7.5 43.06 7.69 43.59 8 44C8.46 44.61 9.18 45 10 45C10.82 45 11.54 44.61 12 44ZM54 44C54.31 43.59 54.5 43.06 54.5 42.5C54.5 41.94 54.31 41.41 54 41C53.54 40.39 52.82 40 52 40C51.18 40 50.46 40.39 50 41C49.69 41.41 49.5 41.94 49.5 42.5C49.5 43.06 49.69 43.59 50 44C50.46 44.61 51.18 45 52 45C52.82 45 53.54 44.61 54 44ZM57.29 41H60.5C60.78 41 61 40.78 61 40.5V35.08L55.463 35.021C53.554 35 52 33.43 52 31.521V19H3V41H4.71C5.36 38.7 7.49 37 10 37C12.51 37 14.64 38.7 15.29 41H46.71C47.36 38.7 49.49 37 52 37C54.51 37 56.64 38.7 57.29 41ZM6.50001 21.0002H48.5C49.33 21.0002 50 21.6702 50 22.5002V31.5002C50 32.3302 49.33 33.0002 48.5 33.0002H6.50001C5.67001 33.0002 5.00001 32.3302 5.00001 31.5002V22.5002C5.00001 21.6702 5.67001 21.0002 6.50001 21.0002ZM33 30.0002V24.0002H22V30.0002H33ZM19 24.0002H8.00001V30.0002H19V24.0002ZM36 30.0002H47V24.0002H36V30.0002Z" fill="black"/>
</svg>

<svg xmlns="http://www.w3.org/2000/svg" width="64" height="64" fill="none" viewBox="0 0 64 64"><path fill="currentColor" fill-rule="evenodd" d="m60.14 17.89 3.82 15.25c.03.11.04.24.04.36v7c0 1.93-1.57 3.5-3.5 3.5h-3.21c-.65 2.3-2.78 4-5.29 4s-4.64-1.7-5.29-4H15.29c-.65 2.3-2.78 4-5.29 4s-4.64-1.7-5.29-4H1.5C.67 44 0 43.33 0 42.5v-25c0-.83.67-1.5 1.5-1.5h56.22c1.15 0 2.15.78 2.42 1.89m-4.646 14.131 5.105.054L57.33 19H55v12.521c0 .272.222.497.494.5M12 44a2.5 2.5 0 0 0 0-3c-.46-.61-1.18-1-2-1s-1.54.39-2 1a2.5 2.5 0 0 0 0 3c.46.61 1.18 1 2 1s1.54-.39 2-1m42 0a2.5 2.5 0 0 0 0-3c-.46-.61-1.18-1-2-1s-1.54.39-2 1a2.5 2.5 0 0 0 0 3c.46.61 1.18 1 2 1s1.54-.39 2-1m3.29-3h3.21c.28 0 .5-.22.5-.5v-5.42l-5.537-.059a3.513 3.513 0 0 1-3.463-3.5V19H3v22h1.71c.65-2.3 2.78-4 5.29-4s4.64 1.7 5.29 4h31.42c.65-2.3 2.78-4 5.29-4s4.64 1.7 5.29 4M6.5 21h42c.83 0 1.5.67 1.5 1.5v9c0 .83-.67 1.5-1.5 1.5h-42c-.83 0-1.5-.67-1.5-1.5v-9c0-.83.67-1.5 1.5-1.5M33 30v-6H22v6zm-14-6H8v6h11zm17 6h11v-6H36z" clip-rule="evenodd"/></svg>
